X:130
T:Miss Fargiharson's Reel
M: C|
L:1/8
B:Thompson's Compleat Collection of 200 Favourite Country Dances, vol. 3 (London, 1773)
Z:Transcribed and edited by Flynn Titford-Mock, 2007
Z:abc's:AK/Fiddler's Companion
K:D
B/c/ | dDFD d(D D)B/c/ | dDFD B(E E)B/c/ | dDFD dgfe | (d/c/B/A/) Bc dD D :|
|: f/g/ | afge f(d d)f/g/ | afgf e(E E)f/g/ | afge fdec | (d/c/B/A/) Bc dD ~D :|

